X:4
T:Four Kisses, The
C:Patrick Ourceau
R:reel
D:Solas (sunny spells )
M:C|
K:Bm
~B3e fB~B2|afec ABcA|B2aB gBfB|~e3f edcA|
~B3e fB~B2|afec ABcA|Bf~f2 af~f2|1 edcd ~B3A:|2 edcd ~B3c||
|:dAFA defd|cAce aece|BF~F2 GAce|dcAc ~B3c|
d3c defd|cAce aece|Bf~f2 af~f2|1 edcd ~B3c:|2 edcd ~B3A||
~B3ef~B3|afec ABcA|B2aB gBfB|~e3f edcd|
~B3ef~B3|afec ABce|a~f3 a~f3|edcd B4:|
d3c dfed|Bcce aecA|B~F3 GBdB|cBAc ~B3c|
d3c dfed|Bcce aece|a~f3 a~f3|edcd B4:|
